X:1
T:All the Way to Calvary
T:All the Way to Calvary
T:Isaac Hickman Meredith
T:Virginia Williams Moyer, 1894
T:Public Domain Courtesy of the Cyber Hymnal™
T:Public Domain Courtesy of the Cyber Hymnal™
C:Isaac Hickman Meredith
Z:Public Domain
Z:Courtesy of the Cyber Hymnal™
%%score 1 ( 2 3 )
L:1/8
Q:1/4=92
M:4/4
K:G
V:1 treble 
V:2 bass 
V:3 bass 
V:1
 [B,D]>[B,D] [B,G]>[CA] [DB]2 [DG]2 | [EG]>[EA] [EG]>[CE] [B,D]3 z | %2
w: 1.~Oh, how dark the night that|wrapped my spir- it round!|
w: 2.~Trem- bling- ly a sin- ner|bowed be- fore His face,|
w: 3.~Oh, ’twas won- drous love the|Sav- ior showed for me,|
 [B,D]>[B,D] [DG]>[DA] [DB]2 [DG]2 | [FA]2 [Fd]2 [Gd]3 z | [Ge]>[Ge] [Ec]>[Ge] [Gd]2 [GB]2 | %5
w: Oh, how deep the woe my|Sav- ior found|When He walked a- cross the|
w: Naught I knew of par- don,|God’s free grace;|Heard a voice so melt- ing,|
w: When He left His throne for|Cal- va- ry,|When He trod the wine press,|
 [Ac]>[^GB] [Ac]>[Bd] [=GB]3 z | [EA]>[EB] [Ec]>[Ge] [Gd]2 [GB]2 | [FB]2 [FA]2 [DG]3 z || %8
w: wa- ters of my soul,|Bade my night dis- perse and|made me whole.|
w: “Cease thy wild re- gret,|Je- sus bought thy par- don,|paid thy debt.”|
w: trod it all a- lone,|Praise His name for- ev- er,|make it known.|
"^Refrain" [Gd]>[Gd] [Gd]>[Ge] [Gd]>[Gc] [GB]>[DA] | [DG]2 [GB]2 [GB]3 [DG] | %10
w: ||
w: All the way to Cal- va- ry He|went for me, He|
w: ||
 [DF]2 [FA]2 [FA]3 [DF] | [DG]2 [GB]2 [Fd]4 | [Gd]>[Gd] [Gd]>[Ge] [Gd]>[Gc] [GB]>[DA] | %13
w: |||
w: went for me, Hse|went for me;|All the way to Cal- va- ry He|
w: |||
 [DG]2 [GB]2 [GB]2 [Gd]2 | [Fd]3 [Fc] [FB]2 [DA]2 | [DG]6 z2 |] %16
w: |||
w: went for me, He|died to set me|free.|
w: |||
V:2
 [G,,G,]>[G,,G,] [G,,D,]>[G,,D,] [G,,G,]2 [B,,G,]2 | [C,C]>[C,C] [C,C]>[C,G,] [G,,G,]3 z | %2
 [G,,G,]>[G,,G,] [B,,G,]>[D,F,] G,2 [G,B,]2 | [D,D]2 [D,A,]2 [G,B,]3 z | %4
 [C,C]>[C,C] [C,G,]>[C,C] [G,B,]2 [G,D]2 | [D,D]>[D,D] [D,D]>[D,D] [G,D]3 z | %6
 [C,C]>[C,C] [C,G,]>[C,C] [D,B,]2 [D,D]2 | [D,D]2 [D,C]2 [G,,G,B,]3 z || %8
 [G,B,]>[G,B,] [G,B,]>[G,C] [G,B,]>[G,E] [G,D]>[G,C] | [G,B,]2 [G,D]2 [G,D]3 [G,B,] | %10
 [D,A,]2 [D,D]2 [D,C]3 [D,A,] | [G,B,]2 [G,D]2 (D2 C2) | %12
 [G,B,]>[G,B,] [G,B,]>[G,C] [G,B,]>[G,E] [G,D]>[G,C] | [G,B,]2 [G,D]2 [G,D]2 [G,B,]2 | %14
 [D,A,]3 [D,D] [D,D]2 [D,C]2 | [G,,G,B,]6 z2 |] %16
V:3
 x8 | x8 | x4 G,2 x2 | x8 | x8 | x8 | x8 | x8 || x8 | x8 | x8 | x4 D,4 | x8 | x8 | x8 | x8 |] %16

